!!!ONB: MCCC : IFC0053_04 : Extracted Monophonic Melody
!!!COM: Chopin, Frédéric
!!!OPR: Mazurkas
!!!OMV: 4
!!!SCT: Op.41
!!!ODT: 1838///
**kern
*thru
*staff1
*Ipiano
*>A
*clefG2
*k[b-e-a-d-g-]
*b-:
*M3/4
*MM132
4f
=1
2ff
4ff
=2
2ee
4ee
=3
2ee-
4ee-
=4
2dd
4dd
=5
2dd-
4dd-[
=6
2.dd-]
=7
2ff
4ff[
=8
2.ff]
=9
2aa-
4aa-[
=10
2aa-]
[4fff
=11
8.fff]
16ggg-
4ggg-
4a
=12
4.ccc
8bb-
8a-
8g-
=13
4.dd-
8a
8dd-
8a
=14
8.a
16b-
4b-
4b-
=15
4.ff
8cc
8ff
8cc
=16
8.cc
16dd-
4dd-
4dd-
=17
4.aa-
8ee
8aa-
8ee
=18
8.ee
16ff
4ff
4fff
=19
8.aaa-
16ggg-
4ggg-
4a
=20
[2.b-
=21
*>B
8b-]
16r
16a-
8c
8a-
4ee-
=22
8b-
16r
16a-
8d-
8a-
4ff
=23
8b-
16r
16a-
8c
8a-
4gg-
=24
4bb-[
8bb-]
16r
16aa-
8.cc-
16aa-
=25
8..b-
32aa-
8..b-
32aa-
8..b-
32gg-
=26
8..b--
32gg-
8..a-
32gg-
8..a-
32ff
=27
8..g
32ff
8..g-
32ff
8..g-
32ee-
=28
8..f
32ee-
12dd-
12ee-
12dd-
8c
16.r
32b-
=29
8b-
16r
16a-
8c
8a-
4ee-
=30
8b-
16r
16a-
8d-
8a-
4ff
=31
8b-
16r
16a-
8c
8a-
4gg-
=32
4bb-[
8bb-]
16r
16aa-
8.cc-
16aa-
=33
8..b-
32aa-
8..b-
32aa-
8..b-
32gg-
=34
8..b--
32gg-
8..a-
32gg-
8..a-
32ff
=35
8..g
32ee
8..g-
32ee-
8..f
32dd
=36
8..f-
32dd-
8..e-
32dd-
8..e-
32dd-[
=37
4.dd-]
8a
8dd-
8a
=38
8.a
16b-
4b-
4b-
=39
4.ff
8cc
8ff
8cc
=40
8.cc
16dd-
4dd-
4dd-
=41
4.aa-
8ee
8aa-
8ee
=42
8.ee
16ff
4ff
[4fff
=43
8.fff]
16ggg-
4ggg-
4a
=44
4.cc
8b-
12b-
12a-
12g-
=45
4.dd-
8a
8dd-
8a
=46
8.a
16b-
4b-
12b-
12cc
12b-
=47
4.ff
8cc
8ff
8cc
=48
8.cc
16dd-
4dd-
12dd-
12ee-
12dd-
=49
4.aa-
8ee
8aa-
8ee
=50
8.ee
16ff
4ff
4fff
=51
8.aaa-
16ggg-
4ggg-
4a
=52
*>B1
2.b-[
=53
*>B
8b-]
16r
16a-
8c
8a-
4ee-
=54
8b-
16r
16a-
8d-
8a-
4ff
=55
8b-
16r
16a-
8c
8a-
4gg-
=56
4bb-[
8bb-]
16r
16aa-
8.cc-
16aa-
=57
8..b-
32aa-
8..b-
32aa-
8..b-
32gg-
=58
8..b--
32gg-
8..a-
32gg-
8..a-
32ff
=59
8..g
32ff
8..g-
32ff
8..g-
32ee-
=60
8..f
32ee-
12dd-
12ee-
12dd-
8cc
16.r
32b-
=61
8b-
16r
16a-
8c
8a-
4ee-
=62
8b-
16r
16a-
8d-
8a-
4ff
=63
8b-
16r
16a-
8c
8a-
4gg-
=64
4bb-[
8bb-]
16r
16aa-
8.cc-
16aa-
=65
8..b-
32aa-
8..b-
32aa-
8..b-
32gg-
=66
8..b--
32gg-
8..a-
32gg-
8..a-
32ff
=67
8..g
32ee
8..g-
32ee-
8..f
32dd
=68
8..f-
32dd-
8..e-
32dd-
8..e-
32dd-[
=69
4.dd-]
8a
8dd-
8a
=70
8.a
16b-
4b-
4b-
=71
4.ff
8cc
8ff
8cc
=72
8.cc
16dd-
4dd-
4dd-
=73
4.aa-
8ee
8aa-
8ee
=74
8.ee
16ff
4ff
[4fff
=75
8.fff]
16ggg-
4ggg-
4a
=76
4.cc
8b-
12b-
12a-
12g-
=77
4.dd-
8a
8dd-
8a
=78
8.a
16b-
4b-
12b-
12cc
12b-
=79
4.ff
8cc
8ff
8cc
=80
8.cc
16dd-
4dd-
12dd-
12ee-
12dd-
=81
4.aa-
8ee
8aa-
8ee
=82
8.ee
16ff
4ff
4fff
=83
8.aaa-
16ggg-
4ggg-
4a
=84
*>B2
2b-
4ff[
=85
*>C
4ff]
4.gg-
8dd-
=86
8ee
8cc
4b-
4b-
=87
8ff
8aa-
4gg-
8gg-
8dd-
=88
8ee
8cc
2b-[
=89
4b-]
4a
4a
=90
8cc
8b-
4a
4a
=91
4b-
4a
4a
=92
*>C1
8a
8g
2f
=93
*>C
4ff
4.gg-
8dd-
=94
8ee
8cc
4b-
4b-
=95
8ff
8aa-
4gg-
8gg-
8dd-
=96
8ee
8cc
2b-[
=97
4b-]
4a
4a
=98
8cc
8b-
4a
4a
=99
4b-
4a
4a
=100
*>C2
8a
8g
4f
[4f
=101
*>D
12f]
12g-
12f
8e-
8f
8g-
8a-
=102
8cc
8r
2b-
=103
8A-
16r
16g-
12g-
12a-
12g-
8f
8e-
=104
8f
8r
4d-
4r
=105
12f
12g-
12f
8e-
8f
8g-
8a-
=106
8cc-
8r
2b--
=107
8A-
16r
16g-
12g-
12a-
12g-
8f-
8e-
=108
8f-
8r
4d-
4r
=109
12g#
12a
12g#
8f#
8g#
8a
8b
=110
8dd#
8r
2cc#
=111
8B
16r
16a
12a
12b
12a
8g#
8f#
=112
8g#
8r
4e
4r
=113
12f-
12g-
12f-
8e-
8f-
8g-
8a-
=114
2cc-
4b--
=115
8A-
16r
16g-
12g-
12a-
12g-
8f
8e-
=116
2b-
4a-
=117
12f
12g-
12f
8e-
8f
8g-
8a-
=118
8cc
8r
2b-
=119
8A-
16r
16g-
12g-
12a-
12g-
8f
8e-
=120
8f
8r
4d-
4r
=121
12f
12g-
12f
8e-
8f
8g-
8a-
=122
8cc-
8r
2b--
=123
8A-
16r
16g-
12g-
12a-
12g-
8f-
8e-
=124
8f-
8r
4d-
4r
=125
12g#
12a
12g#
8f#
8g#
8a
8b
=126
8dd#
8r
2cc#
=127
8B
16r
16a
12a
12b
12a
8g#
8f#
=128
8g#
8r
4e
4r
=129
4f-
8e-
8f-
8g-
8a-
=130
2cc-
4b--
=131
8A-
16r
16g-
12g-
12a-
12g-
8f
8e-
=132
8A-
16r
16b-
12b-
12cc
12b-
8a-
8g-
=133
8A-
16r
16ee-
12ee-
12ff
12ee-
8dd-
8cc
=134
8A-
16r
16gg-
12gg-
12aa-
12gg-
8ff
8ee-
=135
8r
16.r
32gg-
8..b--
32gg-
8..b--
32gg-
=136
8..b--
32gg-
8..b--
32gg-
8..a-
32ff
=137
8..g
32ee
8..g-
32ee-
8..f
32dd
=138
8..f-
32dd-
8..e-
32dd-
8..e-
32dd-[
=139
4.dd-]
8a
8dd-
8a
=140
8.a
16b-
4b-
4b-
=141
4.ff
8cc
8ff
8cc
=142
8.cc
16dd-
4dd-
4dd-
=143
4.aa-
8ee
8gg-
8ee
=144
8.ee
16ff
4ff
[4fff
=145
8.fff]
16ggg-
4ggg-
4a
=146
4.cc
8b-
12b-
12a-
12g-
=147
4.dd-
8a
8dd-
8a
=148
8.a
16b-
4b-
12b-
12cc
12b-
=149
4.ff
8cc
8ff
8cc
=150
8.cc
16dd-
4dd-
12dd-
12ee-
12dd-
=151
4.aa-
8ee
8aa-
8ee
=152
8.ee
16ff
4ff
4fff
=153
8.aaa-
16ggg-
4ggg-
4a
=154
[2.b-
=155
8.b-]
16cc
4cc
4cc
=156
8cc
8dd-
[2dd-
=157
8.dd-]
16cc
4.cc
8b-
=158
8b-
8g-
2g-
=159
8cc
8b-
4.b-
8g-
=160
8g-
8f
2f
=161
8cc
8b-
4.b-
8e-
=162
8e-
8d-
2d-
=163
8.b-
16cc
4cc
4cc
=164
8cc
8dd-
[2dd-
=165
8.dd-]
16cc
4.cc
8b-
=166
8b-
8g-
2g-
=167
8cc
8b-
4.b-
8g-
=168
8g-
8f
[2f
=169
2.f_
=170
2.f_
=171
8f]
8cc
4.dd
8cc
=172
8ff
8cc
4.dd
8cc
=173
8cc
8b-
4.b-
8g-
=174
8g-
8f
[2f
=175
8f]
8cc
4.dd
8cc
=176
8ff
8cc
4.dd
8cc
=177
8cc
8b-
4.b-
8g-
=178
2.r
=179
8g-
8f
[2f
=180
2.f_
=181
2.f]
=182
[2.f
=183
2.f_
=184
2.f]
=185
8cc
8b-
4.b-
8g-
=186
8g-
8f
2f
==
*-
